X: 43298
T: Woodford Whistler, The
R: reel
M: 4/4
K: Dmajor
d2 fd BA3|FDFA defg|adbd afdf|egfd edBc|
d2 fd BA3|FDFA defg|adbd afdf|edce d4||
adbd afdf|egfd edBd|adbd afde|feed e2fg|
a3b afdf|egfd edBc|dBAE FAdf|edce d4||

